X:1
T:What a Court Hath Old England
M:6/8
L:1/8
K:F
 D/2D/2| DAA AGA| FGF E2 D/2E/2| FEF GFG| AGA A2 A/2A/2| AGA d/2 d3/2 d|\
 cAG A2 A/2B/2| cAA AGA| FGF D2 C/2D/2| D3 A3| FDF D2|
